!!!COM: Palestrina, Giovanni Perluigi da
!!!OPR: In festis Apostolorum (I)
!!!OTL: Benedictus
**kern	**kern	**kern	**kern
*Ibass	*Itenor	*Itenor	*Icalto
!Bassus	!Tenor 2	!Tenor 1	!Altus
*clefF4	*clefGv2	*clefGv2	*clefG2
*k[]	*k[]	*k[]	*k[]
*D:dor	*D:dor	*D:dor	*D:dor
*M4/2	*M4/2	*M4/2	*M4/2
=1	=1	=1	=1
1D	0r	0r	0r
1E	.	.	.
=2	=2	=2	=2
2.D	1r	0r	0r
4E	.	.	.
4F	1D	.	.
4G	.	.	.
[2A	.	.	.
=3	=3	=3	=3
2A]	1E	0r	0r
2G	.	.	.
2.F	2.D	.	.
4E	4E	.	.
=4	=4	=4	=4
2D	4F	1r	1r
.	4G	.	.
2C	1A	.	.
1BB	.	1D	2r
.	2G#	.	[2d
=5	=5	=5	=5
1AA	[0A	1E	2d]
.	.	.	2c
1r	.	2.D	2.f
.	.	4E	4e
=6	=6	=6	=6
0r	1A]	4F	2d
.	.	4G	.
.	.	1A	2c
.	1r	.	1B
.	.	2G#	.
=7	=7	=7	=7
2r	1D	[0A	1A
1D	.	.	.
.	1E	.	1r
2C	.	.	.
=8	=8	=8	=8
2.F	2.D	0A]	0r
4E	4E	.	.
2D	4F	.	.
.	4G	.	.
2C	[2A	.	.
=9	=9	=9	=9
1BB	4A]	2r	1d
.	4G#	.	.
.	4G#	1d	.
.	4F#	.	.
1AA	1A	.	1e
.	.	2c	.
=10	=10	=10	=10
0r	0D	2.f	2.d
.	.	4e	4e
.	.	2d	4f
.	.	.	4g
.	.	2c	[2a
=11	=11	=11	=11
1r	1E	1B	2a]
.	.	.	2g#
2r	2.F	1A	4a
.	.	.	4g
[2D	.	.	4f
.	4G	.	4e
=12	=12	=12	=12
4D]	1A	2r	2.f
4C	.	.	.
4D	.	2.A	.
4E	.	.	8e
.	.	.	8d
2.F	1r	.	1c
.	.	4G	.
.	.	4A	.
4G	.	4B	.
=13	=13	=13	=13
2A	0r	2c	2r
1G	.	1B	2.d
.	.	.	4c
4F	.	4A	4d
4E	.	4G	4e
=14	=14	=14	=14
1D	1r	2A	1f
.	.	1d	.
1A	2r	.	1e
.	[2A	2c#	.
=15	=15	=15	=15
1D	4A]	2d	4d
.	4G	.	4e
.	4A	2.A	4f
.	4B	.	4d
1r	2.c	.	1e
.	.	4G	.
.	.	4A	.
.	4B	4B	.
=16	=16	=16	=16
0r	2A	2c	2r
.	2G	2B	2.e
.	1c	1A	.
.	.	.	4d
.	.	.	4e
.	.	.	4f
=17	=17	=17	=17
0r	2B	2E	1g
.	2c	2.e	.
.	2d	.	1f
.	.	4d	.
.	2D	[2d	.
=18	=18	=18	=18
2r	2.A	2d]	1.e
2.AA	.	4c	.
.	4G	4B	.
.	4A	4c	.
4GG	4B	4B	.
4AA	[2c	2A	[2f
4BB	.	.	.
=19	=19	=19	=19
1C	4c]	2G	4f]
.	4B	.	4e
.	1A	2C	2.e
1BB	.	1D	.
.	.	.	4d
.	2G#	.	[2d
=20	=20	=20	=20
1AA	1A	1E	2d]
.	.	.	2c#
2r	1F#	1D	2.d
2A	.	.	.
.	.	.	4c
=21	=21	=21	=21
2G	0r	1d	2B
2F	.	.	1A
1E	.	2c	.
.	.	2B	2G#
=22	=22	=22	=22
2.F	0r	2A	1A
.	.	2c	.
4E	.	.	.
2D	.	2B	1r
2C	.	[2A	.
=23	=23	=23	=23
2BB	2r	2A]	1r
2BB	1d	2G#	.
1AA	.	1A	2r
.	2c	.	2a
=24	=24	=24	=24
0r	2B	0r	2g
.	2.A	.	2f
.	.	.	1e
.	4G	.	.
.	4G	.	.
.	8F	.	.
.	8E	.	.
=25	=25	=25	=25
0r	4D	1d	1f
.	4E	.	.
.	4F	.	.
.	4G	.	.
.	2A	2c	2e
.	[2d	2B	2d
=26	=26	=26	=26
0r	2d]	1A	1e
.	2c#	.	.
.	2.d	2.B-	2.g
.	4c	4A	4f
=27	=27	=27	=27
0r	2B-	2G	2e
.	2A	2F	1d
.	1G	2E	.
.	.	2E	2c
=28	=28	=28	=28
2r	1d	1D	2B-
2D	.	.	1A
2C	1r	2r	.
2BB	.	[2d	2G#
=29	=29	=29	=29
2AA	1r	2d]	1A
2A	.	2c	.
2G	1d	2B	1r
2F	.	[2A	.
=30	=30	=30	=30
1E	2c	2A]	1r
.	2B	2G	.
1F	4A	2A	2r
.	4B	.	.
.	4c	2F	2a
.	4A	.	.
=31	=31	=31	=31
2E	4B	2G	2g
.	4c	.	.
2D	1d	2A	2f
1A	.	1r	1e
.	2c#	.	.
=32	=32	=32	=32
2.D	1d	0r	2.f
4E	.	.	4e
4F	1A	.	2d
4G	.	.	.
[2A	.	.	2c
=33	=33	=33	=33
2A]	1E	1e	2B
2G#	.	.	2B
1A	1F	2d	2A
.	.	2c	2a
=34	=34	=34	=34
1r	1G	2B	2g
.	.	1d	2f
2r	1A	.	1e
2A	.	2c	.
=35	=35	=35	=35
2G	1d	2B	2g
2F	.	1A	2d
1E	2c	.	1e
.	2B	2G#	.
=36	=36	=36	=36
1F	1A	2A	2r
.	.	2c	2a
1BB-	2.B-	2d	2g
.	.	2d	2f
.	4A	.	.
=37	=37	=37	=37
2C	2G	2c	2e
2D	2F	1A	1d
1AA	2E	.	.
.	2E	2A	2c#
=38	=38	=38	=38
[0D	[0D	[0A	[0d
=39	=39	=39	=39
0D]	0D]	0A]	0d]
==	==	==	==
*-	*-	*-	*-
!!!CDT: 1525/^1526/-1594/2/2
!!!OCY: Italia
!!!AGN: Mass (Paraphrase)
!!!AST: renaissance, vocal
!!!ASW: Gregorian Mass
!!!PWK: Masses, Book Mantuan II
!!!RNB: Cadence finals: A,E
!!!YOR: Le Opere Complete, v. 19, p. 43
!!!YOO: Rome, Italy: Fratelli Scalera
!!!END: 1992//
!!!EED: John Miller
!!!YEC: Copyright 2000, John Miller
!!!YEN: United States of America
!!!YEM: Rights to all derivative electronic formats reserved.
!!!YEM: Refer to licensing agreement for further details.
!!!YEM: This file must be accompanied by the licensing agreement.
!!!YEM: A copy of the licensing agreement may be found at http://www.music-cog.ohio-state.edu/HumdrumDatabases/Palestrina/license.txt
!!!EMD: converted to Humdrum by Bret Aarden
